assets/icons/few-clouds.svg

<?xml version="1.0" encoding="UTF-8" standalone="no"?>
<svg viewBox="0 0 24 24" height="24" id="svg7384" version="1.1" width="24" sodipodi:docname="few-clouds.svg" inkscape:version="1.1 (ce6663b3b7, 2021-05-25)"
   xmlns:inkscape="http://www.inkscape.org/namespaces/inkscape"
   xmlns:sodipodi="http://sodipodi.sourceforge.net/DTD/sodipodi-0.dtd"
   xmlns="http://www.w3.org/2000/svg"
   xmlns:svg="http://www.w3.org/2000/svg"
   xmlns:rdf="http://www.w3.org/1999/02/22-rdf-syntax-ns#"
   xmlns:cc="http://creativecommons.org/ns#"
   xmlns:dc="http://purl.org/dc/elements/1.1/">
   <sodipodi:namedview id="namedview21" pagecolor="#ffffff" bordercolor="#666666" borderopacity="1.0" inkscape:pageshadow="2" inkscape:pageopacity="0.0" inkscape:pagecheckerboard="0" showgrid="true" width="24px" inkscape:zoom="27.999943" inkscape:cx="16.446462" inkscape:cy="12.892883" inkscape:window-width="1920" inkscape:window-height="1043" inkscape:window-x="1920" inkscape:window-y="0" inkscape:window-maximized="1" inkscape:current-layer="svg7384">
      <inkscape:grid type="xygrid" id="grid118" />
   </sodipodi:namedview>
   <metadata id="metadata20854">
      <rdf:RDF>
         <cc:Work rdf:about="">
            <dc:format>image/svg+xml</dc:format>
            <dc:type rdf:resource="http://purl.org/dc/dcmitype/StillImage" />
         </cc:Work>
      </rdf:RDF>
   </metadata>
   <defs id="defs7386">
      <linearGradient id="linearGradient5606" inkscape:swatch="solid">
         <stop id="stop5608" offset="0" style="stop-color:#000000;stop-opacity:1;" />
      </linearGradient>
      <linearGradient id="linearGradient4526" inkscape:swatch="solid">
         <stop id="stop4528" offset="0" style="stop-color:#ffffff;stop-opacity:1;" />
      </linearGradient>
      <linearGradient id="linearGradient3600-4" inkscape:swatch="gradient">
         <stop id="stop3602-7" offset="0" style="stop-color:#f4f4f4;stop-opacity:1" />
         <stop id="stop3604-6" offset="1" style="stop-color:#dbdbdb;stop-opacity:1" />
      </linearGradient>
   </defs>
   <path id="path30" style="fill:#808080;fill-opacity:1;fill-rule:evenodd;stroke-width:0.5;stroke-linecap:square;stroke-linejoin:round" d="M 11 2 L 11 5 L 12 5 L 12 2 L 11 2 z M 7.1835938 3.0234375 L 6.3164062 3.5234375 L 7.8164062 6.1210938 L 8.6835938 5.6210938 L 7.1835938 3.0234375 z M 15.816406 3.0234375 L 14.316406 5.6210938 L 15.183594 6.1210938 L 16.683594 3.5234375 L 15.816406 3.0234375 z M 11.5 6 A 5.5 5.5 0 0 0 6 11.5 A 5.5 5.5 0 0 0 9.0253906 16.384766 C 9.2735881 16.115271 9.5604834 15.882003 9.875 15.6875 A 4.5 4.5 0 0 1 7 11.5 A 4.5 4.5 0 0 1 11.5 7 A 4.5 4.5 0 0 1 16 11.5 A 4.5 4.5 0 0 1 15.951172 12.001953 C 15.966923 12.001765 15.982261 12.000035 15.998047 12 A 1.0001 1.0001 0 0 0 16 12 C 16.322781 12 16.637293 12.03192 16.941406 12.091797 A 5.5 5.5 0 0 0 17 11.5 A 5.5 5.5 0 0 0 11.5 6 z M 3.5234375 6.3164062 L 3.0234375 7.1835938 L 5.6210938 8.6835938 L 6.1210938 7.8164062 L 3.5234375 6.3164062 z M 19.476562 6.3164062 L 16.878906 7.8164062 L 17.378906 8.6835938 L 19.976562 7.1835938 L 19.476562 6.3164062 z M 2 11 L 2 12 L 5 12 L 5 11 L 2 11 z M 18 11 L 18 12 L 21 12 L 21 11 L 18 11 z M 5.6210938 14.316406 L 3.0234375 15.816406 L 3.5234375 16.683594 L 6.1210938 15.183594 L 5.6210938 14.316406 z M 7.8164062 16.878906 L 6.3164062 19.476562 L 7.1835938 19.976562 L 8.0351562 18.501953 C 8.0937218 18.049086 8.2282077 17.620775 8.4296875 17.232422 L 7.8164062 16.878906 z " />
   <path id="rect1606" style="fill:#808080;fill-opacity:1;fill-rule:evenodd;stroke-width:0.5;stroke-linecap:square;stroke-linejoin:round" d="m 16,13 c -1.822234,0.004 -3.411458,1.239072 -3.865234,3.003906 -0.04489,-0.0023 -0.08982,-0.0036 -0.134766,-0.0039 -1.656854,0 -3,1.343146 -3,3 0,1.656854 1.343146,3 3,3 h 7.5 c 1.380712,0 2.5,-1.119288 2.5,-2.5 -5.06e-4,-1.189077 -0.838475,-2.213261 -2.003906,-2.449219 0.0014,-0.01692 0.0027,-0.03385 0.0039,-0.05078 0,-2.209139 -1.790861,-4 -4,-4 z m 0,1 c 1.656854,0 3,1.343146 3,3 -0.0011,0.01954 -0.0024,0.03908 -0.0039,0.05859 -0.0094,0.397534 -0.09766,0.789241 -0.259766,1.152344 0.231053,-0.137483 0.494811,-0.210337 0.763672,-0.210938 0.11978,7.9e-5 0.23912,0.0145 0.355469,0.04297 0.671719,0.163851 1.14442,0.765617 1.144531,1.457031 0,0.828427 -0.671573,1.5 -1.5,1.5 h -7.5 c -1.104569,0 -2,-0.895431 -2,-2 0,-1.104569 0.895431,-2 2,-2 0.359587,2.17e-4 0.712464,0.09738 1.021484,0.28125 -0.01157,-0.09336 -0.01874,-0.187215 -0.02148,-0.28125 0.0028,-0.265579 0.04093,-0.529606 0.113281,-0.785156 0.353638,-1.304139 1.535489,-2.210918 2.886719,-2.214844 z" />
</svg>

<svg height="24" width="24" xmlns="http://www.w3.org/2000/svg"><path style="fill:gray;fill-opacity:1;stroke-width:.5;stroke-linecap:square;stroke-linejoin:round" d="M11 2v3h1V2h-1zM7.184 3.023l-.868.5 1.5 2.598.868-.5-1.5-2.598zm8.632 0-1.5 2.598.868.5 1.5-2.598-.868-.5zM11.5 6A5.5 5.5 0 0 0 6 11.5a5.5 5.5 0 0 0 3.025 4.885c.249-.27.535-.503.85-.698A4.5 4.5 0 0 1 7 11.5 4.5 4.5 0 0 1 11.5 7a4.5 4.5 0 0 1 4.5 4.5 4.5 4.5 0 0 1-.049.502l.047-.002A1 1 0 0 0 16 12c.323 0 .637.032.941.092A5.5 5.5 0 0 0 17 11.5 5.5 5.5 0 0 0 11.5 6zm-7.977.316-.5.868 2.598 1.5.5-.868-2.598-1.5zm15.954 0-2.598 1.5.5.868 2.598-1.5-.5-.868zM2 11v1h3v-1H2zm16 0v1h3v-1h-3zM5.621 14.316l-2.598 1.5.5.868 2.598-1.5-.5-.868zm2.195 2.563-1.5 2.598.868.5.851-1.475a3.82 3.82 0 0 1 .395-1.27l-.614-.353z"/><path style="fill:gray;fill-opacity:1;stroke-width:.5;stroke-linecap:square;stroke-linejoin:round" d="M16 13a4 4 0 0 0-3.865 3.004A3 3 0 1 0 12 22h7.5a2.5 2.5 0 0 0 .496-4.95A4.32 4.32 0 0 0 20 17a4 4 0 0 0-4-4zm0 1a3 3 0 0 1 3 3l-.004.059a3 3 0 0 1-.26 1.152 1.5 1.5 0 0 1 1.12-.168A1.5 1.5 0 0 1 19.5 21H12a2 2 0 1 1 1.021-3.719A2.996 2.996 0 0 1 13 17c.003-.266.04-.53.113-.785A3 3 0 0 1 16 14z"/></svg>
